; generated by PrusaSlicer 2.1.1+win64 on 2020-03-09 at 20:07:51 UTC

; 

; external perimeters extrusion width = 0.60mm
; perimeters extrusion width = 0.50mm
; infill extrusion width = 0.50mm
; solid infill extrusion width = 0.50mm
; top infill extrusion width = 0.45mm
; first layer extrusion width = 0.42mm

M73 P0 R26
M73 Q0 S26
M201 X1000 Y1000 Z1000 E5000 ; sets maximum accelerations, mm/sec^2
M203 X200 Y200 Z12 E120 ; sets maximum feedrates, mm/sec
M204 P1250 R1250 T1250 ; sets acceleration (P, T) and retract acceleration (R), mm/sec^2
M205 X8.00 Y8.00 Z0.40 E1.50 ; sets the jerk limits, mm/sec
M205 S0 T0 ; sets the minimum extruding and travel feed rate, mm/sec
M107
M862.3 P "MK3" ; printer model check
M862.1 P0.4 ; nozzle diameter check
M115 U3.8.1 ; tell printer latest fw version
G90 ; use absolute coordinates
M83 ; extruder relative mode
M104 S215 ; set extruder temp
M140 S60 ; set bed temp
M190 S60 ; wait for bed temp
M109 S215 ; wait for extruder temp
G28 W ; home all without mesh bed level
G80 ; mesh bed leveling
G1 Y-3.0 F1000.0 ; go outside print area
G92 E0.0
G1 X60.0 E9.0 F1000.0 ; intro line
M73 Q0 S26
M73 P0 R26
G1 X100.0 E12.5 F1000.0 ; intro line
G92 E0.0
M221 S95
G21 ; set units to millimeters
G90 ; use absolute coordinates
M83 ; use relative distances for extrusion
M900 K30 ; Filament gcode
;BEFORE_LAYER_CHANGE
G92 E0.0
;0.2


G1 E-0.80000 F2100.00000
G1 Z0.600 F10800.000
;AFTER_LAYER_CHANGE
;0.2
G1 X121.703 Y68.050
G1 Z0.200
G1 E0.80000 F2100.00000
M204 S1000
G1 F1200
G1 X122.459 Y67.824 E0.02473
G1 X127.700 Y67.811 E0.16431
G1 X128.182 Y67.866 E0.01521
G1 X128.640 Y68.025 E0.01521
G1 X129.055 Y68.284 E0.01532
G1 X129.399 Y68.626 E0.01521
G1 X166.748 Y116.185 E1.89604
G1 X167.036 Y116.700 E0.01851
G1 X167.177 Y117.273 E0.01851
G1 X167.176 Y120.235 E0.09287
G1 X167.060 Y120.740 E0.01623
G1 X166.829 Y121.203 E0.01623
G1 X166.493 Y121.602 E0.01635
G1 X166.075 Y121.908 E0.01623
G1 X128.616 Y141.986 E1.33260
G1 X127.742 Y142.188 E0.02810
G1 X119.767 Y142.176 E0.25008
G1 X118.923 Y141.905 E0.02777
G1 X83.778 Y121.817 E1.26927
G1 X83.184 Y121.224 E0.02631
G1 X82.858 Y120.451 E0.02631
G1 X82.824 Y117.268 E0.09979
G1 X82.972 Y116.678 E0.01908
G1 X83.280 Y116.149 E0.01919
G1 X121.076 Y68.528 E1.90626
G1 X121.656 Y68.086 E0.02285
G1 F8640
G1 X122.459 Y67.824 E-0.19514
G1 X124.906 Y67.818 E-0.56486
G1 E-0.04000 F2100.00000
G1 Z0.800 F10800.000
G1 X123.283 Y70.587
G1 Z0.200
G1 E0.80000 F2100.00000
G1 F1200
G1 X127.109 Y70.587 E0.11996
G1 X127.109 Y118.089 E1.48938
G1 X164.413 Y118.089 E1.16964
G1 X164.413 Y119.414 E0.04157
G1 X159.413 Y119.414 E0.15677
G1 X159.413 Y121.914 E0.07839
G1 X154.413 Y121.914 E0.15677
G1 X154.413 Y124.414 E0.07839
G1 X149.413 Y124.414 E0.15677
G1 X149.413 Y126.914 E0.07839
G1 X144.413 Y126.914 E0.15677
G1 X144.413 Y129.414 E0.07839
G1 X139.413 Y129.414 E0.15677
G1 X139.413 Y131.914 E0.07839
G1 X134.413 Y131.914 E0.15677
G1 X134.413 Y134.414 E0.07839
G1 X127.109 Y134.414 E0.22901
G1 X127.109 Y139.413 E0.15672
G1 X120.587 Y139.413 E0.20449
G1 X120.587 Y138.087 E0.04157
G1 X123.283 Y138.087 E0.08453
G1 X123.283 Y134.414 E0.11515
G1 X115.587 Y134.414 E0.24130
G1 X115.587 Y131.914 E0.07839
G1 X110.587 Y131.914 E0.15677
G1 X110.587 Y129.414 E0.07839
G1 X105.587 Y129.414 E0.15677
G1 X105.587 Y126.914 E0.07839
G1 X100.587 Y126.914 E0.15677
G1 X100.587 Y124.414 E0.07839
G1 X95.587 Y124.414 E0.15677
G1 X95.587 Y121.914 E0.07839
G1 X90.587 Y121.914 E0.15677
G1 X90.587 Y119.414 E0.07839
G1 X85.587 Y119.414 E0.15677
G1 X85.587 Y118.089 E0.04157
G1 X125.456 Y118.089 E1.25007
G1 X125.456 Y114.413 E0.11525
G1 X123.283 Y114.413 E0.06814
G1 X123.283 Y70.647 E1.37225
G1 F8640
G1 X126.574 Y70.595 E-0.76000
G1 E-0.04000 F2100.00000
G1 Z0.800 F10800.000
G1 X127.486 Y117.712
G1 Z0.200
G1 E0.80000 F2100.00000
G1 F1200
G1 X164.790 Y117.712 E1.16964
G1 X164.790 Y119.792 E0.06522
G1 X159.790 Y119.792 E0.15677
G1 X159.790 Y122.292 E0.07839
G1 X154.790 Y122.292 E0.15677
G1 X154.790 Y124.792 E0.07839
G1 X149.790 Y124.792 E0.15677
G1 X149.790 Y127.292 E0.07839
G1 X144.790 Y127.292 E0.15677
G1 X144.790 Y129.792 E0.07839
G1 X139.790 Y129.792 E0.15677
G1 X139.790 Y132.292 E0.07839
G1 X134.790 Y132.292 E0.15677
G1 X134.790 Y134.792 E0.07839
G1 X127.486 Y134.792 E0.22901
G1 X127.486 Y139.790 E0.15672
G1 X120.210 Y139.790 E0.22814
G1 X120.210 Y137.710 E0.06522
G1 X122.906 Y137.710 E0.08453
G1 X122.906 Y134.792 E0.09151
G1 X115.210 Y134.792 E0.24130
G1 X115.210 Y132.292 E0.07839
G1 X110.210 Y132.292 E0.15677
G1 X110.210 Y129.792 E0.07839
G1 X105.210 Y129.792 E0.15677
G1 X105.210 Y127.292 E0.07839
G1 X100.210 Y127.292 E0.15677
G1 X100.210 Y124.792 E0.07839
G1 X95.210 Y124.792 E0.15677
G1 X95.210 Y122.292 E0.07839
G1 X90.210 Y122.292 E0.15677
G1 X90.210 Y119.792 E0.07839
G1 X85.210 Y119.792 E0.15677
G1 X85.210 Y117.712 E0.06522
G1 X125.079 Y117.712 E1.25007
G1 X125.079 Y114.790 E0.09160
G1 X122.906 Y114.790 E0.06814
G1 X122.906 Y70.210 E1.39777
G1 X127.486 Y70.210 E0.14360
G1 X127.486 Y117.652 E1.48750
G1 X127.499 Y118.111 F10800.000
G1 F8640
G1 X130.777 Y117.657 E-0.76000
G1 E-0.04000 F2100.00000
G1 Z0.800 F10800.000
G1 X125.569 Y114.490
G1 Z0.200
G1 E0.80000 F2100.00000
G1 F1200
G1 X126.826 Y115.747 E0.05596
G1 X126.826 Y116.282 E0.01686
G1 X125.739 Y115.195 E0.04841
G1 X125.739 Y115.731 E0.01686
G1 X126.826 Y116.818 E0.04841
G1 X126.826 Y117.353 E0.01686
G1 X125.739 Y116.266 E0.04841
G1 X125.739 Y116.802 E0.01686
G1 X126.826 Y117.889 E0.04841
G1 X126.826 Y118.371 E0.01519
G1 X127.309 Y118.371 E0.01519
G1 X139.130 Y130.193 E0.52642
G1 X139.130 Y129.657 E0.01686
G1 X127.844 Y118.371 E0.50257
G1 X128.380 Y118.371 E0.01686
G1 X139.140 Y129.132 E0.47917
G1 X139.676 Y129.132 E0.01686
G1 X128.915 Y118.371 E0.47917
G1 X129.451 Y118.371 E0.01686
G1 X140.381 Y129.301 E0.48672
G1 X140.916 Y129.301 F10800.000
G1 F1200
G1 X129.986 Y118.371 E0.48672
G1 X130.522 Y118.371 E0.01686
G1 X141.282 Y129.132 E0.47917
G1 X141.818 Y129.132 E0.01686
G1 X131.058 Y118.371 E0.47917
G1 X131.593 Y118.371 E0.01686
G1 X142.353 Y129.132 E0.47917
G1 X142.889 Y129.132 E0.01686
G1 X132.129 Y118.371 E0.47917
G1 X132.664 Y118.371 E0.01686
G1 X143.424 Y129.132 E0.47917
G1 X143.960 Y129.132 E0.01686
G1 X133.200 Y118.371 E0.47917
G1 X133.735 Y118.371 E0.01686
G1 X144.130 Y128.766 E0.46289
G1 X144.130 Y128.231 E0.01686
G1 X134.271 Y118.371 E0.43905
G1 X134.806 Y118.371 E0.01686
M73 Q4 S25
G1 X144.130 Y127.695 E0.41520
M73 P4 R25
G1 X144.130 Y127.160 E0.01686
G1 X135.342 Y118.371 E0.39135
G1 X135.877 Y118.371 E0.01686
G1 X144.138 Y126.632 E0.36784
G1 X144.673 Y126.632 E0.01686
G1 X136.413 Y118.371 E0.36784
G1 X136.949 Y118.371 E0.01686
G1 X145.209 Y126.632 E0.36784
G1 X145.744 Y126.632 E0.01686
G1 X137.484 Y118.371 E0.36784
G1 X138.020 Y118.371 E0.01686
G1 X146.280 Y126.632 E0.36784
G1 X146.815 Y126.632 E0.01686
G1 X138.555 Y118.371 E0.36784
G1 X139.091 Y118.371 E0.01686
G1 X147.351 Y126.632 E0.36784
G1 X147.887 Y126.632 E0.01686
G1 X139.626 Y118.371 E0.36784
G1 X140.162 Y118.371 E0.01686
G1 X148.422 Y126.632 E0.36784
G1 X148.958 Y126.632 E0.01686
G1 X140.697 Y118.371 E0.36784
G1 X141.233 Y118.371 E0.01686
G1 X149.130 Y126.269 E0.35167
G1 X149.130 Y125.733 E0.01686
G1 X141.768 Y118.371 E0.32782
G1 X142.304 Y118.371 E0.01686
G1 X149.130 Y125.197 E0.30397
G1 X149.130 Y124.662 E0.01686
G1 X142.840 Y118.371 E0.28012
G1 X143.375 Y118.371 E0.01686
G1 X149.135 Y124.132 E0.25651
G1 X149.671 Y124.132 E0.01686
G1 X143.911 Y118.371 E0.25651
G1 X144.446 Y118.371 E0.01686
G1 X150.206 Y124.132 E0.25651
G1 X150.742 Y124.132 E0.01686
G1 X144.982 Y118.371 E0.25651
G1 X145.517 Y118.371 E0.01686
G1 X151.278 Y124.132 E0.25651
G1 X151.813 Y124.132 E0.01686
G1 X146.053 Y118.371 E0.25651
G1 X146.588 Y118.371 E0.01686
G1 X152.349 Y124.132 E0.25651
G1 X152.884 Y124.132 E0.01686
G1 X147.124 Y118.371 E0.25651
G1 X147.660 Y118.371 E0.01686
G1 X153.420 Y124.132 E0.25651
G1 X153.955 Y124.132 E0.01686
G1 X148.195 Y118.371 E0.25651
G1 X148.731 Y118.371 E0.01686
G1 X154.130 Y123.771 E0.24045
G1 X154.130 Y123.235 E0.01686
G1 X149.266 Y118.371 E0.21660
G1 X149.802 Y118.371 E0.01686
G1 X154.130 Y122.700 E0.19275
G1 X154.130 Y122.164 E0.01686
G1 X150.337 Y118.371 E0.16890
G1 X150.873 Y118.371 E0.01686
G1 X154.133 Y121.632 E0.14518
G1 X154.669 Y121.632 E0.01686
G1 X151.408 Y118.371 E0.14518
G1 X151.944 Y118.371 E0.01686
G1 X155.204 Y121.632 E0.14518
G1 X155.740 Y121.632 E0.01686
G1 X152.479 Y118.371 E0.14518
G1 X153.015 Y118.371 E0.01686
G1 X156.275 Y121.632 E0.14518
G1 X156.811 Y121.632 E0.01686
G1 X153.551 Y118.371 E0.14518
G1 X154.086 Y118.371 E0.01686
G1 X157.346 Y121.632 E0.14518
G1 X157.882 Y121.632 E0.01686
G1 X154.622 Y118.371 E0.14518
G1 X155.157 Y118.371 E0.01686
G1 X158.417 Y121.632 E0.14518
G1 X158.953 Y121.632 E0.01686
G1 X155.693 Y118.371 E0.14518
G1 X156.228 Y118.371 E0.01686
G1 X159.130 Y121.273 E0.12922
G1 X159.130 Y120.738 E0.01686
G1 X156.764 Y118.371 E0.10537
G1 X157.299 Y118.371 E0.01686
G1 X159.130 Y120.202 E0.08152
G1 X159.130 Y119.667 E0.01686
G1 X157.835 Y118.371 E0.05768
G1 X158.370 Y118.371 E0.01686
G1 X159.131 Y119.132 E0.03386
G1 X159.666 Y119.132 E0.01686
G1 X158.906 Y118.371 E0.03386
G1 X159.442 Y118.371 E0.01686
G1 X160.202 Y119.132 E0.03386
G1 X160.737 Y119.132 E0.01686
G1 X159.977 Y118.371 E0.03386
G1 X160.513 Y118.371 E0.01686
G1 X161.273 Y119.132 E0.03386
G1 X161.809 Y119.132 E0.01686
G1 X161.048 Y118.371 E0.03386
G1 X161.584 Y118.371 E0.01686
G1 X162.344 Y119.132 E0.03386
G1 X162.880 Y119.132 E0.01686
G1 X162.119 Y118.371 E0.03386
G1 X162.655 Y118.371 E0.01686
G1 X163.415 Y119.132 E0.03386
G1 X163.951 Y119.132 E0.01686
G1 X163.190 Y118.371 E0.03386
G1 X163.726 Y118.371 E0.01686
G1 X164.300 Y118.945 E0.02555
G1 F8640
G1 X163.726 Y118.371 E-0.18739
G1 X163.190 Y118.371 E-0.12366
G1 X163.951 Y119.132 E-0.24826
G1 X163.415 Y119.132 E-0.12366
G1 X163.179 Y118.896 E-0.07703
G1 E-0.04000 F2100.00000
G1 Z0.800 F10800.000
G1 X139.300 Y130.898
G1 Z0.200
G1 E0.80000 F2100.00000
G1 F1200
G1 X125.739 Y117.337 E0.60387
G1 X125.739 Y117.873 E0.01686
G1 X139.130 Y131.264 E0.59631
G1 X139.130 Y131.632 E0.01158
G1 X138.962 Y131.632 E0.00528
G1 X125.702 Y118.371 E0.59049
G1 X125.166 Y118.371 E0.01686
G1 X138.427 Y131.632 E0.59049
G1 X137.891 Y131.632 E0.01686
G1 X124.631 Y118.371 E0.59049
G1 X124.095 Y118.371 E0.01686
G1 X137.356 Y131.632 E0.59049
G1 X136.820 Y131.632 E0.01686
G1 X123.560 Y118.371 E0.59049
G1 X123.024 Y118.371 E0.01686
G1 X136.285 Y131.632 E0.59049
G1 X135.749 Y131.632 E0.01686
G1 X122.489 Y118.371 E0.59049
G1 X121.953 Y118.371 E0.01686
G1 X135.213 Y131.632 E0.59049
G1 X134.678 Y131.632 E0.01686
G1 X121.418 Y118.371 E0.59049
G1 X120.882 Y118.371 E0.01686
G1 X134.142 Y131.632 E0.59049
G1 X134.130 Y132.155 E0.01648
G1 X120.347 Y118.371 E0.61380
G1 X119.811 Y118.371 E0.01686
G1 X134.130 Y132.691 E0.63765
G1 X134.130 Y133.226 E0.01686
G1 X119.275 Y118.371 E0.66149
G1 X118.740 Y118.371 E0.01686
G1 X134.130 Y133.762 E0.68534
G1 X134.130 Y134.132 E0.01165
G1 X133.965 Y134.132 E0.00521
G1 X118.204 Y118.371 E0.70182
G1 X117.669 Y118.371 E0.01686
G1 X133.429 Y134.132 E0.70182
G1 X132.894 Y134.132 E0.01686
G1 X117.133 Y118.371 E0.70182
G1 X116.598 Y118.371 E0.01686
G1 X132.358 Y134.132 E0.70182
G1 X131.822 Y134.132 E0.01686
G1 X116.062 Y118.371 E0.70182
G1 X115.527 Y118.371 E0.01686
G1 X131.287 Y134.132 E0.70182
G1 X130.751 Y134.132 E0.01686
G1 X114.991 Y118.371 E0.70182
G1 X114.456 Y118.371 E0.01686
G1 X130.216 Y134.132 E0.70182
G1 X129.680 Y134.132 E0.01686
G1 X113.920 Y118.371 E0.70182
G1 X113.384 Y118.371 E0.01686
G1 X129.145 Y134.132 E0.70182
G1 X128.609 Y134.132 E0.01686
G1 X112.849 Y118.371 E0.70182
G1 X112.313 Y118.371 E0.01686
G1 X128.074 Y134.132 E0.70182
G1 X127.538 Y134.132 E0.01686
G1 X111.778 Y118.371 E0.70182
G1 X111.242 Y118.371 E0.01686
G1 X127.002 Y134.132 E0.70182
G1 X126.826 Y134.132 E0.00555
G1 X126.826 Y134.491 E0.01131
G1 X110.707 Y118.371 E0.71782
G1 X110.171 Y118.371 E0.01686
G1 X126.826 Y135.026 E0.74167
G1 X126.826 Y135.562 E0.01686
G1 X109.636 Y118.371 E0.76552
G1 X109.100 Y118.371 E0.01686
G1 X126.826 Y136.098 E0.78937
G1 X126.826 Y136.633 E0.01686
G1 X108.564 Y118.371 E0.81321
G1 X108.029 Y118.371 E0.01686
G1 X126.826 Y137.169 E0.83706
M73 Q7 S24
G1 X126.826 Y137.704 E0.01686
G1 X107.493 Y118.371 E0.86091
M73 P7 R24
G1 X106.958 Y118.371 E0.01686
G1 X122.718 Y134.132 E0.70182
G1 X122.183 Y134.132 E0.01686
G1 X106.422 Y118.371 E0.70182
G1 X105.887 Y118.371 E0.01686
G1 X121.647 Y134.132 E0.70182
G1 X121.111 Y134.132 E0.01686
G1 X105.351 Y118.371 E0.70182
G1 X104.816 Y118.371 E0.01686
G1 X120.576 Y134.132 E0.70182
G1 X120.040 Y134.132 E0.01686
G1 X104.280 Y118.371 E0.70182
G1 X103.745 Y118.371 E0.01686
G1 X119.505 Y134.132 E0.70182
G1 X118.969 Y134.132 E0.01686
G1 X103.209 Y118.371 E0.70182
G1 X102.673 Y118.371 E0.01686
G1 X118.434 Y134.132 E0.70182
G1 X117.898 Y134.132 E0.01686
G1 X115.870 Y132.103 E0.09032
G1 X115.870 Y132.639 E0.01686
G1 X117.363 Y134.132 E0.06647
G1 X116.827 Y134.132 E0.01686
G1 X115.870 Y133.174 E0.04263
G1 X115.870 Y133.710 E0.01686
G1 X116.461 Y134.301 E0.02633
G1 F8640
G1 X115.870 Y133.710 E-0.19310
G1 X115.870 Y133.174 E-0.12366
G1 X116.827 Y134.132 E-0.31257
G1 X117.363 Y134.132 E-0.12366
G1 X117.341 Y134.110 E-0.00701
G1 E-0.04000 F2100.00000
G1 Z0.800 F10800.000
G1 X115.568 Y131.801
G1 Z0.200
G1 E0.80000 F2100.00000
G1 F1200
G1 X102.138 Y118.371 E0.59805
G1 X101.602 Y118.371 E0.01686
G1 X114.863 Y131.632 E0.59049
G1 X114.327 Y131.632 E0.01686
G1 X101.067 Y118.371 E0.59049
G1 X100.531 Y118.371 E0.01686
G1 X113.792 Y131.632 E0.59049
G1 X113.256 Y131.632 E0.01686
G1 X99.996 Y118.371 E0.59049
G1 X99.460 Y118.371 E0.01686
G1 X110.220 Y129.132 E0.47917
G1 X109.685 Y129.132 E0.01686
G1 X98.925 Y118.371 E0.47917
G1 X98.389 Y118.371 E0.01686
G1 X109.149 Y129.132 E0.47917
G1 X108.614 Y129.132 E0.01686
G1 X97.854 Y118.371 E0.47917
G1 X97.318 Y118.371 E0.01686
G1 X108.078 Y129.132 E0.47917
G1 X107.543 Y129.132 E0.01686
G1 X105.870 Y127.459 E0.07449
G1 X105.870 Y127.994 E0.01686
G1 X107.007 Y129.132 E0.05064
G1 X106.472 Y129.132 E0.01686
G1 X105.870 Y128.530 E0.02680
G1 X105.870 Y129.065 E0.01686
G1 X106.106 Y129.301 E0.01050
G1 F8640
G1 X105.870 Y129.065 E-0.07702
G1 X105.870 Y128.530 E-0.12366
G1 X106.472 Y129.132 E-0.19649
G1 X107.007 Y129.132 E-0.12366
G1 X106.275 Y128.399 E-0.23917
G1 E-0.04000 F2100.00000
G1 Z0.800 F10800.000
G1 X105.212 Y126.801
G1 Z0.200
G1 E0.80000 F2100.00000
G1 F1200
G1 X96.782 Y118.371 E0.37539
G1 X96.247 Y118.371 E0.01686
G1 X104.507 Y126.632 E0.36784
G1 X103.972 Y126.632 E0.01686
G1 X95.711 Y118.371 E0.36784
G1 X95.176 Y118.371 E0.01686
G1 X103.436 Y126.632 E0.36784
G1 X102.900 Y126.632 E0.01686
G1 X100.870 Y124.601 E0.09043
G1 X100.870 Y125.137 E0.01686
G1 X102.365 Y126.632 E0.06658
G1 X101.829 Y126.632 E0.01686
G1 X100.870 Y125.672 E0.04273
G1 X100.870 Y126.208 E0.01686
G1 X101.464 Y126.801 E0.02644
G1 F8640
G1 X100.870 Y126.208 E-0.19386
G1 X100.870 Y125.672 E-0.12366
G1 X101.829 Y126.632 E-0.31333
G1 X102.365 Y126.632 E-0.12366
G1 X102.348 Y126.615 E-0.00549
G1 E-0.04000 F2100.00000
G1 Z0.800 F10800.000
G1 X100.570 Y124.301
G1 Z0.200
G1 E0.80000 F2100.00000
G1 F1200
G1 X94.640 Y118.371 E0.26407
G1 X94.105 Y118.371 E0.01686
G1 X99.865 Y124.132 E0.25651
G1 X99.329 Y124.132 E0.01686
G1 X93.569 Y118.371 E0.25651
G1 X93.034 Y118.371 E0.01686
G1 X98.794 Y124.132 E0.25651
G1 X98.258 Y124.132 E0.01686
G1 X92.498 Y118.371 E0.25651
G1 X91.962 Y118.371 E0.01686
G1 X95.223 Y121.632 E0.14518
G1 X94.687 Y121.632 E0.01686
G1 X91.427 Y118.371 E0.14518
G1 X90.891 Y118.371 E0.01686
G1 X94.152 Y121.632 E0.14518
G1 X93.616 Y121.632 E0.01686
G1 X90.356 Y118.371 E0.14518
G1 X89.820 Y118.371 E0.01686
G1 X93.081 Y121.632 E0.14518
G1 X92.545 Y121.632 E0.01686
G1 X90.870 Y119.957 E0.07460
G1 X90.870 Y120.492 E0.01686
G1 X92.009 Y121.632 E0.05075
G1 X91.474 Y121.632 E0.01686
G1 X90.870 Y121.028 E0.02690
G1 X90.870 Y121.563 E0.01686
G1 X91.108 Y121.801 E0.01061
G1 F8640
G1 X90.870 Y121.563 E-0.07778
G1 X90.870 Y121.028 E-0.12366
G1 X91.474 Y121.632 E-0.19725
G1 X92.009 Y121.632 E-0.12366
